SVG_Azure_All/Azure Arc Data Controller.svg

<?xml version="1.0" encoding="UTF-8" standalone="no"?>
<!-- Generated by Microsoft Visio, SVG Export Azure Arc Data Controller.svg Page-1 -->

<svg
   xmlns:dc="http://purl.org/dc/elements/1.1/"
   xmlns:cc="http://creativecommons.org/ns#"
   xmlns:rdf="http://www.w3.org/1999/02/22-rdf-syntax-ns#"
   xmlns:svg="http://www.w3.org/2000/svg"
   xmlns="http://www.w3.org/2000/svg"
   xmlns:sodipodi="http://sodipodi.sourceforge.net/DTD/sodipodi-0.dtd"
   xmlns:inkscape="http://www.inkscape.org/namespaces/inkscape"
   width="0.74544632in"
   height="0.7873615in"
   viewBox="0 0 53.672345 56.690339"
   xml:space="preserve"
   class="st8"
   version="1.1"
   id="svg67"
   sodipodi:docname="Azure Arc Data Controller.svg"
   style="font-size:12px;overflow:visible;color-interpolation-filters:sRGB;fill:none;fill-rule:evenodd;stroke-linecap:square;stroke-miterlimit:3"
   inkscape:version="0.92.5 (2060ec1f9f, 2020-04-08)"><metadata
   id="metadata71"><rdf:RDF><cc:Work
       rdf:about=""><dc:format>image/svg+xml</dc:format><dc:type
         rdf:resource="http://purl.org/dc/dcmitype/StillImage" /></cc:Work></rdf:RDF></metadata><sodipodi:namedview
   pagecolor="#ffffff"
   bordercolor="#666666"
   borderopacity="1"
   objecttolerance="10"
   gridtolerance="10"
   guidetolerance="10"
   inkscape:pageopacity="0"
   inkscape:pageshadow="2"
   inkscape:window-width="640"
   inkscape:window-height="480"
   id="namedview69"
   showgrid="false"
   inkscape:zoom="1.4193119"
   inkscape:cx="35.782408"
   inkscape:cy="37.783311"
   inkscape:window-x="0"
   inkscape:window-y="0"
   inkscape:window-maximized="0"
   inkscape:current-layer="svg67" />
	<style
   type="text/css"
   id="style2">
	<![CDATA[
		.st1 {fill:#5ea0ef;stroke:none;stroke-linecap:butt;stroke-width:34}
		.st2 {fill:#50e6ff;stroke:none;stroke-linecap:butt;stroke-width:34}
		.st3 {fill:url(#grad0-10);stroke:none;stroke-linecap:butt;stroke-width:34}
		.st4 {fill:#e8e8e8}
		.st5 {stroke:none;stroke-linecap:butt;stroke-width:34}
		.st6 {fill:#198ab3;stroke:none;stroke-linecap:butt;stroke-width:34}
		.st7 {fill:#ffffff;stroke:none;stroke-linecap:butt;stroke-width:34}
		.st8 {fill:none;fill-rule:evenodd;font-size:12px;overflow:visible;stroke-linecap:square;stroke-miterlimit:3}
	]]>
	</style>

	<defs
   id="Patterns_And_Gradients">
		<linearGradient
   id="grad0-10"
   x1="0"
   y1="78.281816"
   x2="37.552608"
   y2="78.281816"
   gradientTransform="scale(0.92883029,1.0766229)"
   gradientUnits="userSpaceOnUse">
			<stop
   offset="0"
   stop-color="#005ba1"
   stop-opacity="1"
   id="stop4" />
			<stop
   offset="0.07"
   stop-color="#0060a9"
   stop-opacity="1"
   id="stop6" />
			<stop
   offset="0.36"
   stop-color="#0071c8"
   stop-opacity="1"
   id="stop8" />
			<stop
   offset="0.52"
   stop-color="#0078d4"
   stop-opacity="1"
   id="stop10" />
			<stop
   offset="0.64"
   stop-color="#0074cd"
   stop-opacity="1"
   id="stop12" />
			<stop
   offset="0.82"
   stop-color="#006abb"
   stop-opacity="1"
   id="stop14" />
			<stop
   offset="1"
   stop-color="#005ba1"
   stop-opacity="1"
   id="stop16" />
		</linearGradient>
	</defs>
	<g
   id="g65"
   transform="translate(-34.000142,-34.0018)">
		<title
   id="title20">Page-1</title>
		<g
   id="group8621-1"
   transform="translate(33.9071,-34.0157)">
			<title
   id="title22">Azure Arc Data Controller</title>
			<g
   id="group8622-2">
				<title
   id="title24">Data_controller</title>
				<g
   id="shape8623-3"
   transform="translate(0.0731125)">
					<title
   id="title26">Sheet.8623</title>
					<path
   d="m 53.61,115.82 c -0.5,2.22 -3.24,4.41 -8.19,6.11 a 67.5472,68.3627 0 0 1 -37.95,0.05 c -4.56,-1.62 -7.02,-3.7 -7.4,-5.82 -0.07,-0.38 0,-6.23 0,-6.23 l 53.62,-0.51 c 0,0 -0.02,6.13 -0.08,6.4 z"
   class="st1"
   id="path28"
   inkscape:connector-curvature="0"
   style="fill:#5ea0ef;stroke:none;stroke-width:34;stroke-linecap:butt" />
				</g>
				<g
   id="shape8624-5"
   transform="rotate(-0.575,-522.66364,103.41717)">
					<title
   id="title31">Sheet.8624</title>
					<ellipse
   cx="26.8374"
   cy="115.318"
   rx="26.8374"
   ry="9.3905602"
   class="st2"
   id="ellipse33"
   style="fill:#50e6ff;stroke:none;stroke-width:34;stroke-linecap:butt" />
				</g>
				<g
   id="shape8625-7"
   transform="translate(9.48935,-9.89529)">
					<title
   id="title36">Sheet.8625</title>
					<path
   d="M 17.44,90.67 C 7.81,90.67 0,87.92 0,84.28 v 34.04 c 0,3.48 7.67,6.33 17.21,6.39 h 0.23 c 9.63,0 17.44,-2.76 17.44,-6.39 V 84.28 c 0,3.56 -7.81,6.39 -17.44,6.39 z"
   class="st3"
   id="path38"
   inkscape:connector-curvature="0"
   style="fill:url(#grad0-10);stroke:none;stroke-width:34;stroke-linecap:butt" />
				</g>
				<g
   id="shape8626-11"
   transform="translate(9.48935,-43.9325)">
					<title
   id="title41">Sheet.8626</title>
					<path
   d="m 34.88,118.32 c 0,3.55 -7.82,6.39 -17.44,6.39 -9.62,0 -17.44,-2.75 -17.44,-6.39 0,-3.64 7.81,-6.37 17.44,-6.37 9.63,0 17.44,2.75 17.44,6.39 z"
   class="st4"
   id="path43"
   inkscape:connector-curvature="0"
   style="fill:#e8e8e8" />
					<path
   d="m 34.88,118.32 c 0,3.55 -7.82,6.39 -17.44,6.39 -9.62,0 -17.44,-2.75 -17.44,-6.39 0,-3.64 7.81,-6.37 17.44,-6.37 9.63,0 17.44,2.75 17.44,6.39"
   class="st5"
   id="path45"
   inkscape:connector-curvature="0"
   style="stroke:none;stroke-width:34;stroke-linecap:butt" />
				</g>
				<g
   id="shape8627-14"
   transform="translate(13.5419,-46.7671)">
					<title
   id="title48">Sheet.8627</title>
					<path
   d="m 26.77,120.63 c 0,2.26 -6.01,4.08 -13.38,4.08 -7.38,0 -13.39,-1.82 -13.39,-4.08 0,-2.26 6.01,-4.05 13.39,-4.05 7.37,0 13.38,1.82 13.38,4.05 z"
   class="st2"
   id="path50"
   inkscape:connector-curvature="0"
   style="fill:#50e6ff;stroke:none;stroke-width:34;stroke-linecap:butt" />
				</g>
				<g
   id="shape8628-16"
   transform="translate(16.3458,-46.7671)">
					<title
   id="title53">Sheet.8628</title>
					<path
   d="M 10.58,121.65 A 31.3937,31.7727 -180 0 0 0,123.22 a 31.0432,31.418 -180 0 0 10.58,1.49 30.3892,30.7561 -180 0 0 10.59,-1.58 32.1667,32.555 -180 0 0 -10.59,-1.48 z"
   class="st6"
   id="path55"
   inkscape:connector-curvature="0"
   style="fill:#198ab3;stroke:none;stroke-width:34;stroke-linecap:butt" />
				</g>
				<g
   id="shape8629-18"
   transform="translate(17.4129,-17.2684)">
					<title
   id="title58">Sheet.8629</title>
					<path
   d="m 19.03,116.03 v -2.18 h -0.32 l -2.31,-0.76 -0.6,-1.49 1.16,-2.54 -1.5,-1.52 -0.31,0.16 -2.38,0.98 -1.5,-0.6 -0.94,-2.66 H 8.29 v 0.32 l -0.75,2.34 -1.47,0.6 -2.69,-1.2 -1.5,1.55 0.15,0.29 1.35,2.18 -0.63,1.49 -2.75,1.14 v 2.15 h 0.28 l 2.32,0.76 0.59,1.49 -1.16,2.54 1.51,1.52 h 0.31 l 2.16,-1.11 1.47,0.6 0.94,2.63 h 2.16 v -0.29 l 0.75,-2.34 1.47,-0.6 2.5,1.17 1.5,-1.52 -0.15,-0.32 -1.1,-2.18 0.6,-1.49 z m -9.39,3.17 a 4.16205,4.21229 0 1 1 4.13,-4.25 v 0.04 a 4.13701,4.18696 0 0 1 -4.1,4.21 H 9.45 Z"
   class="st7"
   id="path60"
   inkscape:connector-curvature="0"
   style="fill:#ffffff;stroke:none;stroke-width:34;stroke-linecap:butt" />
				</g>
			</g>
		</g>
	</g>
</svg>

<?xml version="1.0" encoding="UTF-8" standalone="no"?>
<!DOCTYPE svg PUBLIC "-//W3C//DTD SVG 1.1//EN" "http://www.w3.org/Graphics/SVG/1.1/DTD/svg11.dtd">
<!-- Generated by Microsoft Visio, SVG Export Azure Arc Data Controller.svg Page-1 -->
<svg xmlns="http://www.w3.org/2000/svg" xmlns:xlink="http://www.w3.org/1999/xlink" xmlns:ev="http://www.w3.org/2001/xml-events"
		width="1.68991in" height="1.73206in" viewBox="0 0 121.674 124.709" xml:space="preserve" color-interpolation-filters="sRGB"
		class="st8">
	<style type="text/css">
	<![CDATA[
		.st1 {fill:#5ea0ef;stroke:none;stroke-linecap:butt;stroke-width:34}
		.st2 {fill:#50e6ff;stroke:none;stroke-linecap:butt;stroke-width:34}
		.st3 {fill:url(#grad0-10);stroke:none;stroke-linecap:butt;stroke-width:34}
		.st4 {fill:#e8e8e8}
		.st5 {stroke:none;stroke-linecap:butt;stroke-width:34}
		.st6 {fill:#198ab3;stroke:none;stroke-linecap:butt;stroke-width:34}
		.st7 {fill:#ffffff;stroke:none;stroke-linecap:butt;stroke-width:34}
		.st8 {fill:none;fill-rule:evenodd;font-size:12px;overflow:visible;stroke-linecap:square;stroke-miterlimit:3}
	]]>
	</style>

	<defs id="Patterns_And_Gradients">
		<linearGradient id="grad0-10" x1="0" y1="0" x2="1" y2="0" gradientTransform="rotate(0 0.5 0.5)">
			<stop offset="0" stop-color="#005ba1" stop-opacity="1"/>
			<stop offset="0.07" stop-color="#0060a9" stop-opacity="1"/>
			<stop offset="0.36" stop-color="#0071c8" stop-opacity="1"/>
			<stop offset="0.52" stop-color="#0078d4" stop-opacity="1"/>
			<stop offset="0.64" stop-color="#0074cd" stop-opacity="1"/>
			<stop offset="0.82" stop-color="#006abb" stop-opacity="1"/>
			<stop offset="1" stop-color="#005ba1" stop-opacity="1"/>
		</linearGradient>
	</defs>
	<g>
		<title>Page-1</title>
		<g id="group8426-1" transform="translate(33.9071,-34.0157)">
			<title>Azure Arc Data Controller</title>
			<g id="group8427-2">
				<title>Data_controller</title>
				<g id="shape8428-3" transform="translate(0.0731125,1.42109E-14)">
					<title>Sheet.8428</title>
					<path d="M53.61 115.82 C53.11 118.04 50.37 120.23 45.42 121.93 A67.5472 68.3627 0 0 1 7.47 121.98 C2.91 120.36
								 0.45 118.28 0.07 116.16 C0 115.78 0.07 109.93 0.07 109.93 L53.69 109.42 C53.69 109.42 53.67 115.55
								 53.61 115.82 Z" class="st1"/>
				</g>
				<g id="shape8429-5" transform="translate(-1.06416,-5.23997) rotate(-0.575)">
					<title>Sheet.8429</title>
					<ellipse cx="26.8374" cy="115.318" rx="26.8374" ry="9.39056" class="st2"/>
				</g>
				<g id="shape8430-7" transform="translate(9.48935,-9.89529)">
					<title>Sheet.8430</title>
					<path d="M17.44 90.67 C7.81 90.67 0 87.92 0 84.28 L0 118.32 C0 121.8 7.67 124.65 17.21 124.71 L17.44 124.71 C27.07
								 124.71 34.88 121.95 34.88 118.32 L34.88 84.28 C34.88 87.84 27.07 90.67 17.44 90.67 Z" class="st3"/>
				</g>
				<g id="shape8431-11" transform="translate(9.48935,-43.9325)">
					<title>Sheet.8431</title>
					<path d="M34.88 118.32 C34.88 121.87 27.06 124.71 17.44 124.71 C7.82 124.71 0 121.96 0 118.32 C0 114.68 7.81
								 111.95 17.44 111.95 C27.07 111.95 34.88 114.7 34.88 118.34 L34.88 118.32 Z" class="st4"/>
					<path d="M34.88 118.32 C34.88 121.87 27.06 124.71 17.44 124.71 C7.82 124.71 0 121.96 0 118.32 C0 114.68 7.81
								 111.95 17.44 111.95 C27.07 111.95 34.88 114.7 34.88 118.34" class="st5"/>
				</g>
				<g id="shape8432-14" transform="translate(13.5419,-46.7671)">
					<title>Sheet.8432</title>
					<path d="M26.77 120.63 C26.77 122.89 20.76 124.71 13.39 124.71 C6.01 124.71 0 122.89 0 120.63 C0 118.37 6.01
								 116.58 13.39 116.58 C20.76 116.58 26.77 118.4 26.77 120.63 Z" class="st2"/>
				</g>
				<g id="shape8433-16" transform="translate(16.3458,-46.7671)">
					<title>Sheet.8433</title>
					<path d="M10.58 121.65 A31.3937 31.7727 -180 0 0 -0 123.22 A31.0432 31.418 -180 0 0 10.58 124.71 A30.3892 30.7561
								 -180 0 0 21.17 123.13 A32.1667 32.555 -180 0 0 10.58 121.65 Z" class="st6"/>
				</g>
				<g id="shape8434-18" transform="translate(17.4129,-17.2684)">
					<title>Sheet.8434</title>
					<path d="M19.03 116.03 L19.03 113.85 L18.71 113.85 L16.4 113.09 L15.8 111.6 L16.96 109.06 L15.46 107.54 L15.15
								 107.7 L12.77 108.68 L11.27 108.08 L10.33 105.42 L8.29 105.42 L8.29 105.74 L7.54 108.08 L6.07 108.68
								 L3.38 107.48 L1.88 109.03 L2.03 109.32 L3.38 111.5 L2.75 112.99 L0 114.13 L0 116.28 L0.28 116.28
								 L2.6 117.04 L3.19 118.53 L2.03 121.07 L3.54 122.59 L3.85 122.59 L6.01 121.48 L7.48 122.08 L8.42
								 124.71 L10.58 124.71 L10.58 124.42 L11.33 122.08 L12.8 121.48 L15.3 122.65 L16.8 121.13 L16.65 120.81
								 L15.55 118.63 L16.15 117.14 L19.03 116.03 ZM9.64 119.2 A4.16205 4.21229 0 1 1 13.77 114.95 L13.77
								 114.99 A4.13701 4.18696 0 0 1 9.67 119.2 L9.45 119.2 L9.64 119.2 Z" class="st7"/>
				</g>
			</g>
		</g>
	</g>
</svg>
